svg/u1f504.svg

<svg viewBox="0 0 128 128" xmlns="http://www.w3.org/2000/svg">
  <g>
    <path d="M116,4H12c-4.42,0-8,3.58-8,8v104c0,4.42,3.58,8,8,8h104c4.42,0,8-3.58,8-8V12 C124,7.58,120.42,4,116,4z" fill="#427687"/>
    <path d="M109.7,4H11.5C7.37,4.03,4.03,7.37,4,11.5v97.9c-0.01,4.14,3.34,7.49,7.48,7.5c0.01,0,0.01,0,0.02,0 h98.1c4.14,0.01,7.49-3.34,7.5-7.48c0-0.01,0-0.01,0-0.02V11.5c0.09-4.05-3.13-7.41-7.18-7.5C109.85,4,109.77,4,109.7,4z" fill="#8CAFBF"/>
    <path d="M31.6,14.4c-0.09-0.38-0.22-0.75-0.4-1.1 c-2.4-5.6-13-2.8-16.1,1c-2.9,3.5-2.6,8.8-3,13c-1,11.9,6.5,0.5,10.6-3.3C25.6,21.2,32.7,19.4,31.6,14.4z" opacity="0.5" fill="#B4E1ED" enable-background="new "/>
    <path d="M40.35,64.73c1.58,1.39,3.99,1.24,5.38-0.34c0.62-0.7,0.96-1.61,0.95-2.54V48.43 c0-1.06,0.85-1.91,1.91-1.92h32.6c4.6,0,11.12,1.44,11.5,11.51l14.19,12.75l0,0c0.77-2.91,1.15-5.91,1.12-8.92 c0-17-12-30.68-26.84-30.68H48.59c-1.05-0.01-1.9-0.86-1.91-1.91V15.83c-0.02-2.1-1.73-3.8-3.84-3.78 c-0.92,0.01-1.8,0.34-2.49,0.95l-23,23c-1.59,1.41-1.73,3.85-0.31,5.44c0.1,0.11,0.2,0.22,0.31,0.31L40.35,64.73z" fill="#FAFAFA"/>
    <path d="M83.68,59c-1.57-1.39-3.97-1.25-5.36,0.32c-0.62,0.7-0.96,1.62-0.96,2.56v13.39 c-0.01,1.06-0.86,1.91-1.92,1.92h-32.6c-4.6,0-11-1.44-11.5-11.5L17.15,52.94l0,0c-0.77,2.91-1.16,5.9-1.15,8.91 c0,17,12,30.68,26.84,30.68h32.6c1.06,0.01,1.91,0.86,1.92,1.92v13.42c0,2.1,1.7,3.81,3.81,3.81c0.92,0,1.82-0.33,2.51-0.94l23-23 c1.59-1.4,1.74-3.82,0.34-5.41c-0.11-0.12-0.22-0.24-0.34-0.34L83.68,59z" fill="#FAFAFA"/>
  </g>
</svg>

<svg viewBox="0 0 128 128" xmlns="http://www.w3.org/2000/svg">
  <defs/>
  <path d="M116,4 L12,4 C7.58,4 4,7.58 4,12 L4,116 C4,120.42 7.58,124 12,124 L116,124 C120.42,124 124,120.42 124,116 L124,12 C124,7.58 120.42,4 116,4 Z" fill="#427687"/>
  <path d="M109.7,4 L11.5,4 C7.37,4.03 4.03,7.37 4,11.5 L4,109.4 C3.99,113.54 7.34,116.89 11.48,116.9 C11.49,116.9 11.49,116.9 11.5,116.9 L109.6,116.9 C113.74,116.91 117.09,113.56 117.1,109.42 C117.1,109.41 117.1,109.41 117.1,109.4 L117.1,11.5 C117.19,7.45 113.97,4.09 109.92,4 C109.85,4 109.77,4 109.7,4 Z" fill="#8CAFBF"/>
  <path d="M31.6,14.4 C31.51,14.02 31.38,13.65 31.2,13.3 C28.8,7.7 18.2,10.5 15.1,14.3 C12.2,17.8 12.5,23.1 12.1,27.3 C11.1,39.2 18.6,27.8 22.7,24 C25.6,21.2 32.7,19.4 31.6,14.4 Z" fill="#B4E1ED" opacity="0.5"/>
  <path d="M40.35,64.73 C41.93,66.12 44.34,65.97 45.73,64.39 C46.35,63.69 46.69,62.78 46.68,61.85 L46.68,48.43 C46.68,47.37 47.53,46.52 48.59,46.51 L81.19,46.51 C85.79,46.51 92.31,47.95 92.69,58.02 L106.88,70.77 L106.88,70.77 C107.65,67.86 108.03,64.86 108,61.85 C108,44.85 96,31.17 81.16,31.17 L48.59,31.17 C47.54,31.16 46.69,30.31 46.68,29.26 L46.68,15.83 C46.66,13.73 44.95,12.03 42.84,12.05 C41.92,12.06 41.04,12.39 40.35,13 L17.35,36 C15.76,37.41 15.62,39.85 17.04,41.44 C17.14,41.55 17.24,41.66 17.35,41.75 L40.35,64.73 Z" fill="#FAFAFA"/>
  <path d="M83.68,59 C82.11,57.61 79.71,57.75 78.32,59.32 C77.7,60.02 77.36,60.94 77.36,61.88 L77.36,75.27 C77.35,76.33 76.5,77.18 75.44,77.19 L42.84,77.19 C38.24,77.19 31.84,75.75 31.34,65.69 L17.15,52.94 L17.15,52.94 C16.38,55.85 15.99,58.84 16,61.85 C16,78.85 28,92.53 42.84,92.53 L75.44,92.53 C76.5,92.54 77.35,93.39 77.36,94.45 L77.36,107.87 C77.36,109.97 79.06,111.68 81.17,111.68 C82.09,111.68 82.99,111.35 83.68,110.74 L106.68,87.74 C108.27,86.34 108.42,83.92 107.02,82.33 C106.91,82.21 106.8,82.09 106.68,81.99 L83.68,59 Z" fill="#FAFAFA"/>
</svg>
